X: 42822
T: Why So
R: jig
M: 6/8
K: Dmajor
DED DED|dcd efg|DED DED|dcd efe|
DED DED|dcd efg|(3 fga f gfe|(3 fef f gfe:|
dcd AFA|DFA DFA|dcd AFD|BEF GFE|
dcd AFA|def gfe|(3 fga f gfe|(3 fga f gfe:|

